X:1

T:Bay of Fundy

C:Bill Guest

L:1/8

M:2/2

Q:420

K:D

fg |"D"a2 ab afdf |afbf a2 ef |"C"gfga ge=ce |geae g2 fg |

"D"a2 ab afdf |afbf a2 ef |"A"gfeg "D"fedf |"A"ecAc "D"d2 :: cB |

"D"Adfd edfd |"G"Bdgd Bdgd |"D"Adfd Adfd |"A"cAcd efec |

"D"Adfd edfd |"G"Bdgd Bdgd |"D"fedf "A"edce |"D"d2 f2 d2 :|

           

BAY ROOSTER.  See the related “Katy Hill [1].”

           

BAYHAM ABBEY. AKA and see “Duncan Davi(d)son,” “The 1812 March,” “Gentle Ann,” “He is Long a Coming,” "Maggy's Weame Is Fu I Trow," “Welcome Here Again,” “Ye’ll Aye Be Welcome Here Again." See note for “Ye’ll Aye be Welcome Back Again.”

                       


BAYNE WATER. AKA and see "Boyne Water," "Praises of Limerick." Old-Time, Breakdown. A Dorian. Standard tuning. AA'BB. An American version of the famous Irish melody "Boyne Water." Source for notated version: William Franklin George (W.Va.) [Phillips]. Phillips (Traditional American Fiddle Tunes), 1994; pg. 20.

 

BAYOU CHENE WALTZ. See "Valse de Bayou Chene."

                       

BAYOU NOIR (Black Bayou). Cajun, Two-Step (4/4 time). USA, southwestern Louisiana. A Major. Standard tuning. One part. Black Bayou is located west of Hackberry, Louisiana, and empties into Sabine Lake. The original recording has been credited to Lionel Cormier. Source for notated version: Felton LeJeune (La.) [Francois]. Francois (Ye Yaille, Chere!), 1990; pgs. 337-338. Bee Records BEE-104, Felton LeJeune.

                       


BAYOU POMPON. Cajun, Two-Step. USA, southwestern Louisiana. D Major. Standard tuning. AAB(Vocal)ABB(Vocal)AAB(Vocal)A(Vocal)ABB(Vocal)AA. Angelas LeJeune, who composed the song and recorded it in 1929, was one of the best Cajun musicians and singers. There are many versions of this old song, according to Raymond Francois (1990). Source for notated version: accordion player Angelas LeJeune (La.) [Francois]. Francois (Ye Yaille, Chere!), 1990; pgs. 36-38. Old Timey Records OT-114, Angelas LeJeune.

                       

BAYOU TECHE TWO-STEP. See "Jolie Catin [2]."

                       

BAYOU TECHE WALTZ. See "Valse de Bayou Teche."

                       

BB WALTZ. American, Waltz. B Flat Major ('A' part) & F Major ('B' part). Standard tuning. AA'B. Source for notated version: transplanted French-Canadian fiddler Omer Marcoux {1898-1982} (Concord, N.H.) learned this tune as the 1975 Festival of American Folklife in Washington D.C. from Georgia fiddler Jack Weed [Miskoe & Paul]. Miskoe & Paul (Omer Marcoux), 1994; pg. 53.